<?xml version="1.0" encoding="UTF-8"?>
<map version="1.10" tiledversion="1.12.2" orientation="orthogonal" renderorder="right-down" width="30" height="24" tilewidth="32" tileheight="32" infinite="0" nextlayerid="3" nextobjectid="9">
 <tileset firstgid="1" source="../../../../../../OneDrive/Desktop/TwinStick/TwinStick/Content/Tilesets/tileset.tsx"/>
 <layer id="1" name="Tile Layer 1" width="30" height="24">
  <data encoding="csv">
2,2,2,2,2,2,2,2,2,2,2,2,2,2,2,2,2,2,2,2,2,2,2,2,2,2,2,2,2,2,
2,2,2,2,2,2,2,2,2,2,2,2,2,2,2,2,2,2,2,2,2,2,2,2,2,2,2,2,2,2,
2,2,2,2,2,2,2,2,2,1,1,2,2,2,2,2,2,2,2,2,2,2,1,1,1,1,2,2,2,2,
2,2,2,2,2,2,2,1,1,1,1,2,2,2,2,2,1,1,1,1,1,1,1,1,1,1,1,2,2,2,
2,2,2,2,1,1,1,1,1,1,1,1,1,1,1,1,1,1,1,1,1,1,1,1,1,1,1,2,2,2,
2,2,2,1,1,1,1,1,1,1,1,1,1,1,1,1,1,1,1,2,2,2,2,2,2,1,1,1,2,2,
2,2,1,1,1,1,1,1,1,1,1,1,1,1,1,1,1,2,2,2,2,2,2,2,2,1,1,1,2,2,
2,2,1,1,1,1,1,1,1,1,2,2,2,1,1,1,1,1,1,2,2,2,2,2,2,1,1,1,2,2,
2,2,2,1,1,1,1,2,2,2,2,2,2,2,2,2,1,1,1,1,2,2,2,2,2,1,1,1,2,2,
2,2,2,1,1,1,2,2,2,2,2,2,2,2,2,2,2,2,1,1,1,2,2,2,2,2,1,1,2,2,
2,2,2,1,1,1,2,2,2,2,2,2,2,2,2,2,2,2,2,1,1,1,2,2,2,2,1,1,2,2,
2,2,2,1,1,1,1,2,2,2,2,2,2,2,2,2,2,2,2,2,1,1,1,2,2,2,1,1,2,2,
2,2,2,1,1,1,1,1,1,1,1,1,1,1,1,1,2,2,2,2,2,1,1,2,2,2,1,1,2,2,
2,2,2,2,2,2,1,1,1,1,1,1,1,1,1,1,1,2,2,2,2,1,1,2,2,2,1,1,1,2,
2,2,2,2,2,2,2,2,2,2,2,2,2,1,1,1,1,2,2,2,2,1,1,2,2,2,1,1,1,2,
2,2,2,2,2,2,2,2,2,2,2,1,1,1,1,1,2,2,2,2,2,1,1,1,2,2,2,1,1,2,
2,2,2,2,2,2,2,1,1,1,1,1,1,1,1,1,2,2,2,2,2,1,1,1,2,2,2,1,1,2,
2,2,2,2,2,1,1,1,1,1,1,1,1,1,1,1,2,2,2,2,2,1,1,1,2,2,2,1,1,2,
2,2,2,2,1,1,1,1,2,2,2,2,2,1,1,2,2,2,2,2,1,1,1,1,2,2,1,1,1,2,
2,2,1,1,1,1,2,2,2,2,2,2,2,2,2,2,2,2,2,2,1,1,1,2,2,2,1,1,1,2,
2,2,1,1,1,1,2,1,1,1,2,2,2,2,2,2,2,1,1,1,1,1,1,2,1,1,1,1,1,2,
2,2,1,1,1,1,2,1,1,1,1,1,1,1,1,1,1,1,1,1,1,1,1,2,1,1,1,1,1,2,
2,2,1,1,1,1,2,1,1,1,1,1,1,1,1,1,1,1,1,2,2,2,2,2,1,1,1,1,1,2,
2,2,2,2,2,2,2,2,2,2,2,2,2,2,2,2,2,2,2,2,2,2,2,2,2,2,2,2,2,2
</data>
 </layer>
 <objectgroup id="2" name="Object Layer 1">
  <object id="1" name="PlayerSpwan" x="128" y="688">
   <properties>
    <property name="Type" value="PlayerSpawn"/>
   </properties>
   <point/>
  </object>
  <object id="2" name="Key" x="256" y="668">
   <properties>
    <property name="Type" value="Key"/>
   </properties>
   <point/>
  </object>
  <object id="3" name="Exit" x="770.5" y="642" width="63" height="90.5">
   <properties>
    <property name="Type" value="Exit"/>
   </properties>
  </object>
  <object id="4" name="Enemy" x="465" y="487">
   <properties>
    <property name="Type" value="Enemy"/>
   </properties>
   <point/>
  </object>
  <object id="5" name="Enemy" x="175" y="210">
   <properties>
    <property name="Type" value="Enemy"/>
   </properties>
   <point/>
  </object>
  <object id="6" name="Enemy" x="679" y="666">
   <properties>
    <property name="Type" value="Enemy"/>
   </properties>
   <point/>
  </object>
  <object id="7" name="Enemy" x="883" y="663">
   <properties>
    <property name="Type" value="Enemy"/>
   </properties>
   <point/>
  </object>
  <object id="8" name="Enemy" x="783" y="125">
   <properties>
    <property name="Type" value="Enemy"/>
   </properties>
   <point/>
  </object>
 </objectgroup>
</map>
